X:43
T:Pollo ur J H Anderssons notbok (Ma11 - 43)
R:Polska
O:Fjärås, Halland
B:J H Anderssons notbok
N:Nr 43 i Ma11.
Z:Till abc Jonas Brunskog
M:3/4
L:1/16
K:C
[G,Dc]2cB c2G2 c2d2|e2ed e2c2 d2e2|fefg f2d2 e2c2|c2Bc dcBA G4|
[G,Dc]2cB c2G2 c2d2|e2ed  e2c2 e2f2|g2e2 f2a2 g2af|(e2g2) B2d2 c4:|
|:G2GF G2B2 A2c2|B2BA B2d2 c2e2|d2e2 f2e2 d2c2|c2Bc dcBA G4|
[Ec]2[Ec][Ec] [Ec]2[Ec][Ec] [Gd]2[Gd][Gd]|[ce]2[ce][ce] [ce]2[ce][ce] d2dd|g2fe f2a2 g2f2|(e2g2) B2d2 c4:|

